X:1
T:Spenta è la fè
T:Spenta è la fè
T:Claudio Saracini
T:Source : Le terze Musische per cantar e sonar---Venetia---A.Vincenti---1620. Editor : André Vierendeels (15/01/16).
T:Notes : C1, F4 Figures in BC are notated in original print The original print wasdamaged (perhaps during WWII), necessitating an editorial addendum m25
T:©
T:©
T:©
C:Claudio Saracini
Z:©
%%score 1 2
L:1/8
Q:1/4=120
M:4/4
K:F
V:1 treble nm="Soprano" snm="S"
V:2 bass nm="BC" snm="BC"
V:1
 B6 DD | D4 z2 G2 | ^F8 | ^F8 | z2 z A D2 E2 | F/E/F/G/ A/G/A/F/ G/F/G/A/ B/A/B/G/ | %6
w: Spen- ta'è la|fè mio|fle-|ve,|gia del sto|i- * * * * * * * * * * * * * * *|
 A/G/A/B/ c/B/c/A/ B/A/B/c/ d/c/d/B/ | c2 A4 G/F/E/D/ | ^C6 D2 | E8 | D8 | z BBB B3 A | c4 c4 | %13
w: * * * * * * * * * * * * * * * no|tuo son fuor _ _ _|_ di|spe-|ne,|nè piu spe- rar mi|gio- va,|
 z cBA G4 | z dcB A4- | A2 c2 G4 | F8 :: z2 A2 ^F4- | F4 ^F4 | z2 d2 =B4- | B4 =B4 | z d d3 B B2- | %22
w: che l'as- pet- tar,|che l'as- pet- tar|_ m'è no-|ia.|Io va-|* do,|io va-|* do|ad al- tro sol|
 BG _E4 D2 | D4 D4 | z2 A2 FFFF | F3 E EE E2- | E4 D4 | z2 d2 BBBB | B3 A AA A2- | A8 | G8 :| %31
w: _ vol- gen- do'il|pie- de,|per _ _ _ _|an- te'a nuo- va fe-|* de,|per _ _ _ _|an- te'a nuo- va fe-||de.|
V:2
"^b" G,,8- | G,,8 |"^#" D,8 |"^#" D,,8 | D,8 | D,4 G,,4 | F,,4 G,,4 | F,,3 G,, A,,4- | A,,8 | %9
 A,,8 | D,8 | G,,4 G,,2 F,,2 | F,,4 z F,E,D, | C,4 z C,B,,A,, | G,,4 z D,C,B,, | A,,4 C,4 | F,,8 :: %17
"^#" F,4 D,4- |"^#" D,4 D,,4 |"^-natural" D,,4 G,,4- |"^-natural" G,,4 G,,4 |"^b" G,,8 | G,,8 | %23
 G,,4 D,4- | D,4 D,,4 | D,,2 A,,6 | A,,4 D,4- | D,4 G,,4- | G,,2 D,,6 | D,8 | G,,8 :| %31

